X:2170
T:Brighton Waltz. CJF.075
M:3/8
L:1/8
Q:30
S: C.J.Fox MS, 1829/33, Beverley,E.Yorks.
R:Waltz
O:England
A:East Yorkshire
B:Kidson Coll.Mitchell Lib.M1805
N:"C J Fox" is on the stave at the end of the tune. - PJH.
Z:P J Headford 2000
K:A
(A/c/)|.e(ec)|.e(ec)|(ag).f|e2B/c/|.d(dB)|\
.d(dB)|(edB)|A2:|:!a|(gbd)|(ce)a|gbd|
(ce) e|.f(af)|.e(ae)|(e/f/).e/.d/(c/B/)|A2:|:!e|\
(ec)a|fdB|GBe|dc B|.c(B/c/).e|.d(d/e/).f|
(e/a/)(e/c/)(d/B/)|A2:|]
